X:91
T:91 The Commet Waltz
C:Welch MS
I:abc2nwc
M:3/8
L:1/16
K:C
GB|e3 fed|c3 dcB|A2B2c2|G4EG|F2E2D2|c2B2c2|e2d2c2|c2B2 GB|
e3 fed|c3 dcB|A2B2c2|G4EG|F2E2D2|c2B2c2|d2c2B2|c4:|
e2|fgfedc|B2d2f2|ecBcGE|C4cB|A2d2f2|a2A2d2|cBdcBA|G4Gc|
e3 fed|c3 dcB|A2B2c2|G4EG|F2E2D2|c2B2c2|d2c2B2|c4:|
GF|E2G2B2|c2B2A2|B2d2g2|f4eg|f2e2f2|A2d2c2|B2c2A2|G4GF|
E2G2c2|c2B2A2|B2d2g2|f2e2g2|f2e2f2|A2d2c2|cBAGAB|c4:|

